icon/cg/merge-vertical.svg

<svg viewBox="0 0 24 24" fill="none" xmlns="http://www.w3.org/2000/svg" height="1em" width="1em">
  <path d="M8.97576 12L4.73312 7.75736L3.31891 9.17157L6.14734 12L3.31891 14.8284L4.73312 16.2426L8.97576 12Z" fill="currentColor"/>
  <path d="M11.9998 19C11.4475 19 10.9998 18.5523 10.9998 18V6C10.9998 5.44772 11.4475 5 11.9998 5C12.5521 5 12.9998 5.44772 12.9998 6V18C12.9998 18.5523 12.5521 19 11.9998 19Z" fill="currentColor"/>
  <path d="M15.0242 12L19.2669 16.2426L20.6811 14.8284L17.8527 12L20.6811 9.17157L19.2669 7.75736L15.0242 12Z" fill="currentColor"/>
</svg>

<svg width="24" height="24" fill="none" xmlns="http://www.w3.org/2000/svg"><path d="M8.976 12 4.733 7.757 3.32 9.172 6.147 12 3.32 14.828l1.414 1.415L8.976 12ZM12 19a1 1 0 0 1-1-1V6a1 1 0 1 1 2 0v12a1 1 0 0 1-1 1ZM15.024 12l4.243 4.243 1.414-1.415L17.853 12l2.828-2.828-1.414-1.415L15.024 12Z" fill="currentColor"/></svg>
